X:1
T:O LORD, You Are My Light
T:Text: Psalm 27:1-6; st. 1 vers. Psalter, 1869; st. 2-4 vers. Psalter, 1912; alt. Tune: John Goss, 1800-1880; arr. Uzziah C. Burnap, 1874
T:66 66 88 ARTHUR'S SEAT www.hymnary.org/text/jehovah_is_my_light_and_my_salvation_nea
T:O LORD, You Are My Light
T:This hymn is in the public domain. You may freely use this score for personal and congregational worship. If you reproduce the score, please credit Hymnary.org as the source. 
T:This hymn is in the public domain. You may freely use this score for personal and congregational worship. If you reproduce the score, please credit Hymnary.org as the source. 
Z:This hymn is in the public domain. You may freely use this score for personal and congregational worship. If you reproduce the score, please credit Hymnary.org as the source.
%%score ( 1 2 ) ( 3 4 )
L:1/8
M:4/4
K:Ab
V:1 treble nm="SOPRANO ALTO" snm="S. A."
V:2 treble 
V:3 bass nm="TENOR BASS" snm="T. B."
V:4 bass 
V:1
"^1""^2""^3""^4" E2 | A3 A G2 F2 | E6 FG | A2 B2 c2 BA | B6 | E2 | c3 B A2 G2 | (F2 G2 A2) c2 | %8
w: O|LORD, you are my|light and *|my sal- va- tion *|near;|then|who will cause me|fright * * or|
w: My|one re- quest has|been and *|still this prayer I *|raise:|that|I may live with-|in * * God's|
w: When|trou- bles round me|swell, when _|fears and dan- gers *|throng,|se-|cure- ly I will|dwell * * in|
w: Up-|lift- ed on a|rock a- *|bove my foes a- *|round,|a-|mid the bat- tle|shock * * my|
 B3 B c2 B2 | E6 | E2 | F3 F F2 F2 | G3 G G2 |1 G2 | A4 A4 | (B2 c2 d2) B2 | A4 G4 | A6 x2 |] %18
w: fill my heart with|fear?|While|God my strength, my|life sus- tains,|se-|cure from|fear * * my|soul re-|mains.|
w: house for all my|days,|God's|glo- rious beau- ty|to ad- mire,|and|in his|tem- * * ple|to in-|quire.|
w: his pa- vil- ion|strong.|With-|in the shel- ter|of his tent|he|hides me|till * * the|storm is|spent.|
w: song shall still re-|sound.|Then|joy- ful of- ferings|I will bring;|the|LORD God's|praise * * my|heart shall|sing.|
V:2
 E2 | A3 A G2 F2 | E6 D2 | E2 E2 E2 E2 | E6 | E2 | E3 E E2 E2 | (D4 E2) E2 | E3 E =D2 D2 | E6 | %10
 B,2 | C3 C C2 C2 | D3 D D2 |1 D2 | C4 F4 | F6 D2 | C4 (B,2 D2) | C6 x2 |] %18
V:3
 E,2 | A,3 A, G,2 F,2 | E,6 A,2 | A,2 G,2 A,2 A,2 | G,6 | G,2 | A,3 G, A,2 A,2 | %7
 (A,2 B,2 A,2) A,2 | G,3 G, A,2 A,2 | G,6 | G,2 | A,3 A, A,2 A,2 | B,3 B, B,2 |1 B,2 | A,4 C4 | %15
 (B,2 =A,2 B,2) F,2 | E,4 E,4 | E,6 x2 |] %18
V:4
 E,2 | A,3 A, G,2 F,2 | E,6 D,2 | C,2 E,2 A,2 C,2 | E,6 | E,2 | A,,3 B,, C,2 C,2 | (D,4 C,2) A,,2 | %8
 B,,3 B,, B,,2 B,,2 | E,6 | E,2 | E,3 E, E,2 E,2 | E,3 E, E,2 |1 =E,2 | F,4 E,4 | %15
 (D,2 C,2 B,,2) D,2 | E,4 [E,,E,]4 | A,,6 x2 |] %18

